icons-dark/emblems/8/emblem-unavailable.svg

<svg viewBox="0 0 8 8" xmlns="http://www.w3.org/2000/svg">
    <path d="M1 0C.446 0 0 .446 0 1v6c0 .554.446 1 1 1h6c.554 0 1-.446 1-1V1c0-.554-.446-1-1-1z" fill="#7f8c8d"/>
    <path d="M2 1L1 2l2 2-2 2 1 1 2-2 2 2 1-1-2-2 2-2-1-1-2 2z" fill="#fff"/>
</svg>

<svg xmlns="http://www.w3.org/2000/svg" viewBox="0 0 8 8">
  <defs id="defs3051">
    <style type="text/css" id="current-color-scheme">
      .ColorScheme-Text {
        color:#f2f2f2;
      }
      </style>
  </defs>
  <path
      style="fill:currentColor;fill-opacity:0.25;stroke:none" 
     class="ColorScheme-Text"
    d="M 1 0 C 0.4459807 0 0 0.446 0 1 L 0 7 C 0 7.5541 0.4459807 8 1 8 L 7 8 C 7.554019 8 8 7.5541 8 7 L 8 1 C 8 0.446 7.554019 0 7 0 L 1 0 z "
      />
    <path
       style="fill:#ffffff;fill-opacity:1;stroke:none"
       d="M 2 1 L 1 2 L 3 4 L 1 6 L 2 7 L 4 5 L 6 7 L 7 6 L 5 4 L 7 2 L 6 1 L 4 3 L 2 1 z "
        />
</svg>
